docs/.gitbook/assets/icon-book-16@light.svg

<svg width="32" height="32" viewBox="0 0 16 16" fill="none" xmlns="http://www.w3.org/2000/svg">
<rect x="0" y="0" width="16" height="16" fill="#fff"/>
<path fill-rule="evenodd" clip-rule="evenodd" d="M1 1.75C1 1.33579 1.33579 1 1.75 1C3.51804 1 5.18754 1.541 6.39143 2.06161C6.99829 2.32403 7.49878 2.58652 7.84926 2.78443C7.90303 2.8148 7.95333 2.84368 8 2.87084C8.04668 2.84368 8.09697 2.8148 8.15074 2.78443C8.50122 2.58652 9.00171 2.32403 9.60857 2.06161C10.8125 1.541 12.482 1 14.25 1C14.6642 1 15 1.33579 15 1.75V12.25C15 12.6642 14.6642 13 14.25 13C12.768 13 11.3125 13.459 10.2039 13.9384C9.65454 14.176 9.20191 14.4135 8.88832 14.5906C8.73176 14.679 8.61051 14.752 8.5299 14.8018C8.48961 14.8268 8.45952 14.8459 8.44031 14.8583L8.41974 14.8716L8.41603 14.874L8.41575 14.8742C8.16409 15.0418 7.8364 15.0419 7.58466 14.8745C7.58452 14.8744 7.58438 14.8743 7.58425 14.8742L7.58398 14.874L7.58026 14.8716L7.55969 14.8583C7.54048 14.8459 7.51039 14.8268 7.4701 14.8018C7.38949 14.752 7.26824 14.679 7.11168 14.5906C6.79809 14.4135 6.34545 14.176 5.79605 13.9384C4.68744 13.459 3.23193 13 1.75 13C1.33579 13 1 12.6642 1 12.25V1.75ZM8.75 12.9641C9.00294 12.8361 9.29121 12.6988 9.60857 12.5616C10.6406 12.1153 12.0148 11.654 13.5 11.5314V2.53745C12.2844 2.65624 11.1246 3.04028 10.2039 3.43839C9.65454 3.67597 9.20191 3.91348 8.88832 4.09057C8.83859 4.11865 8.79243 4.14517 8.75 4.16989V12.9641ZM7.25 4.16989C7.20757 4.14517 7.16141 4.11865 7.11168 4.09057C6.79809 3.91348 6.34546 3.67597 5.79607 3.43839C4.87544 3.04028 3.71558 2.65624 2.5 2.53745V11.5314C3.98514 11.654 5.35936 12.1153 6.39142 12.5616C6.70878 12.6988 6.99706 12.8361 7.25 12.9641V4.16989Z" fill="#000"/>
</svg>

<svg xmlns="http://www.w3.org/2000/svg" width="32" height="32" fill="none" viewBox="0 0 16 16"><path fill="#fff" d="M0 0h16v16H0z"/><path fill="#000" fill-rule="evenodd" d="M1 1.75A.75.75 0 0 1 1.75 1c1.768 0 3.438.541 4.641 1.062A16 16 0 0 1 8 2.87l.15-.087c.351-.197.852-.46 1.459-.722C10.813 1.54 12.482 1 14.25 1a.75.75 0 0 1 .75.75v10.5a.75.75 0 0 1-.75.75c-1.482 0-2.937.459-4.046.938a14 14 0 0 0-1.674.864l-.09.056-.02.014-.004.002a.75.75 0 0 1-.832 0l-.004-.002-.02-.014-.09-.056a14 14 0 0 0-1.674-.863C4.687 13.458 3.232 13 1.75 13a.75.75 0 0 1-.75-.75zm7.75 11.214c.253-.128.541-.265.859-.402 1.032-.447 2.406-.908 3.891-1.03V2.536c-1.216.12-2.375.503-3.296.901a14 14 0 0 0-1.454.732zM7.25 4.17l-.138-.08a14 14 0 0 0-1.316-.652c-.92-.398-2.08-.782-3.296-.9v8.993c1.485.123 2.86.584 3.891 1.03q.478.209.859.403z" clip-rule="evenodd"/></svg>
